src/components/sections/images/img_icon_black_900_60x60.svg

<svg width="24" height="24" viewBox="0 0 24 24" fill="none" xmlns="http://www.w3.org/2000/svg">
<path fill-rule="evenodd" clip-rule="evenodd" d="M4.0002 10.504C4.0002 6.80374 6.38214 4 9.5002 4C11.5531 4 13.287 5.21542 14.232 7.10191C14.9993 6.40775 15.9768 6 17.0456 6C19.6157 6 21.5456 8.28463 21.5456 11.2339C21.5456 12.7159 21.17 14.7573 20.0241 16.3671L20.5842 17.7674C20.6934 18.0405 20.9174 18.2516 21.1964 18.3446L23.3164 19.0513C23.8404 19.226 24.1235 19.7923 23.9489 20.3162C23.7742 20.8402 23.2079 21.1233 22.684 20.9487L20.564 20.242C19.7268 19.963 19.055 19.3295 18.7272 18.5101L18.4574 17.8356C18.3377 17.8862 18.208 17.9288 18.0932 17.9539C17.8787 18.0008 17.6838 18.0004 17.5324 18.0001L17.4967 18H16.5945L16.5585 18.0001C16.4073 18.0004 16.213 18.0008 16.0005 17.9549C15.8284 17.9177 15.625 17.8424 15.4702 17.7585C15.2809 17.6559 15.1565 17.5489 15.0584 17.4646L15.042 17.4504C14.5151 16.9981 14.0897 16.4767 13.7497 15.9182C13.6398 16.1331 13.5214 16.3446 13.3942 16.5517C13.4134 16.59 13.4303 16.6301 13.4448 16.6717L14.0719 18.4762C14.1547 18.7144 14.3243 18.9125 14.5469 19.0309L18.4697 21.1171C18.9574 21.3764 19.1424 21.9819 18.8831 22.4695C18.6238 22.9572 18.0183 23.1422 17.5307 22.8829L13.6078 20.7967C12.94 20.4415 12.431 19.8472 12.1827 19.1328L11.9071 18.3395C11.8631 18.3784 11.8185 18.4168 11.7734 18.4548L11.7543 18.4709C11.6535 18.556 11.5243 18.6649 11.3365 18.765C11.1817 18.8476 10.9842 18.9196 10.8126 18.9561C10.6028 19.0008 10.4081 19.0004 10.2564 19.0001L10.2195 19H8.78092L8.74372 19.0001C8.59223 19.0004 8.39808 19.0008 8.19011 18.9569C8.01924 18.9209 7.82479 18.8507 7.6703 18.7692C7.4836 18.6708 7.35275 18.5618 7.25088 18.4769L7.23079 18.4602C7.18403 18.4214 7.13788 18.3821 7.09234 18.3424L6.81767 19.1328C6.56937 19.8472 6.06036 20.4415 5.39255 20.7967L1.46974 22.8829C0.982128 23.1422 0.376614 22.9572 0.117291 22.4695C-0.142033 21.9819 0.0430355 21.3764 0.530652 21.1171L4.45346 19.0309C4.67607 18.9125 4.84574 18.7144 4.9285 18.4762L5.55561 16.6717C5.56668 16.6399 5.57919 16.609 5.59304 16.579C4.40775 14.6952 4.0002 12.4238 4.0002 10.504ZM9.5002 6C7.7721 6 6.0002 7.59948 6.0002 10.504C6.0002 12.8487 6.69402 15.4147 8.50855 16.9216C8.53885 16.9468 8.55969 16.9641 8.57773 16.9787L8.58791 16.9869L8.60241 16.9984C8.61551 16.9989 8.63469 16.9994 8.66494 16.9997C8.69634 17 8.73258 17 8.78092 17H10.2195C10.2678 17 10.3038 17 10.3351 16.9997C10.3649 16.9994 10.3837 16.9989 10.3966 16.9984L10.407 16.99L10.4187 16.9805C10.4361 16.9662 10.4562 16.9493 10.4858 16.9244C12.3023 15.3961 13.0002 12.6241 13.0002 10.504C13.0002 7.59948 11.2283 6 9.5002 6ZM14.7391 13.0357C14.9939 14.177 15.5071 15.2139 16.3446 15.9328C16.3725 15.9567 16.3906 15.9722 16.4062 15.9853L16.4216 15.998L16.4227 15.9984C16.4349 15.999 16.4527 15.9994 16.4807 15.9997C16.5114 16 16.5467 16 16.5945 16H17.4967C17.5444 16 17.5795 16 17.6099 15.9997C17.6369 15.9994 17.6542 15.999 17.666 15.9985L17.6681 15.9977L17.6804 15.9874C17.6951 15.9748 17.7123 15.9598 17.7394 15.9362C19.0301 14.8108 19.5456 12.8009 19.5456 11.2339C19.5456 9.10247 18.2447 8 17.0456 8C16.2191 8 15.405 8.49042 14.9333 9.44502C14.9774 9.78824 15.0002 10.1418 15.0002 10.504C15.0002 11.2632 14.9234 12.1341 14.7391 13.0357Z" fill="black"/>
</svg>

<svg width="24" height="24" fill="none" xmlns="http://www.w3.org/2000/svg"><path fill-rule="evenodd" clip-rule="evenodd" d="M4 10.504C4 6.804 6.382 4 9.5 4c2.053 0 3.787 1.215 4.732 3.102A4.166 4.166 0 0 1 17.046 6c2.57 0 4.5 2.285 4.5 5.234 0 1.482-.376 3.523-1.522 5.133l.56 1.4a1 1 0 0 0 .612.578l2.12.706a1 1 0 0 1-.632 1.898l-2.12-.707a3 3 0 0 1-1.837-1.732l-.27-.674c-.12.05-.249.093-.364.118-.214.047-.41.046-.56.046H16.557c-.15 0-.345 0-.558-.045a2.15 2.15 0 0 1-.53-.196c-.19-.103-.314-.21-.412-.294l-.016-.015a6.375 6.375 0 0 1-1.292-1.532c-.11.215-.229.427-.356.634.02.038.036.078.05.12l.628 1.804a1 1 0 0 0 .475.555l3.923 2.086a1 1 0 1 1-.94 1.766l-3.922-2.086a3 3 0 0 1-1.425-1.664l-.276-.793a7.422 7.422 0 0 1-.134.115l-.019.016c-.1.085-.23.194-.418.294a2.122 2.122 0 0 1-.523.191c-.21.045-.405.044-.557.044H8.744c-.152 0-.346 0-.554-.043a2.114 2.114 0 0 1-.52-.188 2.305 2.305 0 0 1-.42-.292l-.02-.017a7.463 7.463 0 0 1-.138-.118l-.274.79a3 3 0 0 1-1.425 1.665L1.47 22.883a1 1 0 1 1-.94-1.766l3.923-2.086a1 1 0 0 0 .475-.555l.628-1.804c.01-.032.023-.063.037-.093C4.408 14.695 4 12.424 4 10.504zM9.5 6C7.772 6 6 7.6 6 10.504c0 2.345.694 4.91 2.509 6.418a7.1 7.1 0 0 0 .069.057l.01.008.014.011.063.002H10.335l.062-.002.01-.008.012-.01a8.15 8.15 0 0 0 .067-.056c1.816-1.528 2.514-4.3 2.514-6.42C13 7.599 11.228 6 9.5 6zm5.24 7.036c.254 1.141.767 2.178 1.605 2.897l.061.052.016.013.059.002h1.129l.056-.002h.002l.012-.01.06-.052c1.29-1.125 1.806-3.135 1.806-4.702 0-2.132-1.301-3.234-2.5-3.234-.827 0-1.641.49-2.113 1.445.044.343.067.697.067 1.059 0 .76-.077 1.63-.26 2.532z" fill="#000"/></svg>
